X:294
T: Die Vogelhochzeit (49), S.156
N: T0183
O: Luxemburg
S: Singendes Volk, Esch-Alzette 1937 posth.]
N: Reuland, hhh Ferd Freylinger, 1910
R: Liebeslieder]
M: 2/4
L: 1/16
K: G
D2 | G4z2G2 | G2A2B2B2 | B4
G2B2 | d2B2AAd2 | d2z
GG2G2 | G2zAA2A2 | A2z
BB2B2 | d2cBA2d2 | d2z
GG2G2 | G2zAA2A2 | A2z
BB2B2 | d2cBA2d2 | G2z4

@@@ Tune index: 8348
